X: 124
T: Missa Sancta Dei genitrix / Credo
N: Derived from Rue1026c-Missa_Sancta_Dei_genitrix-Credo.krn
C: Pierre de la Rue
%%abc-version 2.0
%%abcx-abcm2ps-target-version 5.9.1 (29 Sep 2008)
%%abc-creator hum2abc beta
%%abcx-conversion-date 2019/02/17 08:01:14
%%abc-edited-by Jesse Rodin
%%abc-edited-by Jesse Rodin; Chris Gage 10-25-2012
%%abcx-initial-encoding-date 2012/11/12/
%%humdrum-veritas 25764368
%%humdrum-veritas-data 128498253
%%linebreak <none>
%%barnumbers 0
L: 1/4
M: 3/1
Q: 1/2=120
%%staves [1 2 3 4]
V: 1 clef=treble
V: 2 clef=treble-8
V: 3 clef=treble-8
V: 4 clef=bass
K: C
[V:1] z12 | 
[V:2] z12 | 
[V:3] B4c2B4G2 | 
[V:4] z4z4E,4 | 
[V:1] z12 | 
[V:2] z4e4f2e2- | 
[V:3] A2B2E4z4 | 
[V:4] F,2E,4C,2D,2E,2 | 
[V:1] z12 | 
[V:2] e2c2d2e2A2d2- | 
[V:3] A4_B2A4F2 | 
[V:4] A,,4z4z4 | 
[V:1] z4B4c4 | 
[V:2] d2^c2d2g2f2e2- | 
[V:3] G2A2D4z4 | 
[V:4] z4G,,4A,,4 | 
[V:1] B4G2A2B2c2- | 
[V:2] e2dcB2A2e4- | 
[V:3] z12 | 
[V:4] E,6F,2E,4 | 
[V:1] cBA4^G2A4 | 
[V:2] e2c2B4A4 | 
[V:3] z4z2E4F2 | 
[V:4] C,2D,2E,4A,,3B,, | 
[V:1] z12 | 
[V:2] z2B4c2d2d2 | 
[V:3] E2F2G2A2D4 | 
[V:4] C,2D,2E,2A,,2B,,4 | 
[V:1] z2E2F2G4G2 | 
[V:2] e4d2c2B4 | 
[V:3] z12 | 
[V:4] A,,4z2E,3F,G,E, | 
[V:1] A4G2F2E4 | 
[V:2] A2f2e2d4^c2 | 
[V:3] z12 | 
[V:4] F,2D,2E,2F,2G,2A,2 | 
[V:1] D4z4A4 | 
[V:2] d4e4f4 | 
[V:3] z12 | 
[V:4] _B,4A,4F,4 | 
[V:1] _B4A4F4 | 
[V:2] d2e4f3ed2- | 
[V:3] z4z4A4 | 
[V:4] G,4A,4D,4 | 
[V:1] G2A3GG4^F2 | 
[V:2] d2cBA2d2c2BA | 
[V:3] _B2A2F2G2A4 | 
[V:4] z2D,4B,,2A,,4 | 
[V:1] G4E2F2G4 | 
[V:2] B4z2A2B2c2- | 
[V:3] D4z4z4 | 
[V:4] G,,4z4z4 | 
[V:1] A4G3FE4 | 
[V:2] c2d2B2c3BA2- | 
[V:3] z12 | 
[V:4] z12 | 
[V:1] F4E2F2G4 | 
[V:2] A2GFG2A2B2c2- | 
[V:3] z12 | 
[V:4] z12 | 
[V:1] A4z4A4 | 
[V:2] cAd4cBc2d2 | 
[V:3] z12 | 
[V:4] z12 | 
[V:1] _B4A2A2A2G2 | 
[V:2] G2d3cdcA2c2- | 
[V:3] z12 | 
[V:4] z12 | 
[V:1] c3BAGG4^F2 | 
[V:2] cBAGc2B2A4 | 
[V:3] z12 | 
[V:4] z12 | 
[V:1] G4E3FG4 | 
[V:2] G2E3FG4E2- | 
[V:3] B12- | 
[V:4] E,3F,G,4E,4 | 
[V:1] E4G4A4 | 
[V:2] E2G3FEDC2C2 | 
[V:3] B4c8 | 
[V:4] G,4C,3B,,A,,4 | 
[V:1] D4G4E3F | 
[V:2] G4E3FG4 | 
[V:3] B12 | 
[V:4] G,,2G,4E,3F,G,2 | 
[V:1] G4E2E2D4 | 
[V:2] z2c3BAGF4 | 
[V:3] G4A8 | 
[V:4] C,8D,4 | 
[V:1] z2d2d2d2d2d2 | 
[V:2] G2G2G2G2D2D2 | 
[V:3] B12 | 
[V:4] G,,4G,,2G,,2G,,2G,,2 | 
[V:1] c2c2B2c2A3G | 
[V:2] A4z4z2E2- | 
[V:3] E12 | 
[V:4] A,,4G,,2A,,3B,,C,2- | 
[V:1] E4z2D3CDE | 
[V:2] E2DCE2F2G4 | 
[V:3] A8_B4 | 
[V:4] C,2B,,A,,C,2D,2G,,4 | 
[V:1] FGA4BAB2A2- | 
[V:2] F2f3ed4c2- | 
[V:3] A4F8 | 
[V:4] D,4D,2D,2D,4 | 
[V:1] A2GFE4z2E2 | 
[V:2] c2B2c4C4 | 
[V:3] G12 | 
[V:4] D,4C,8 | 
[V:1] D2d3cc4BA | 
[V:2] D4E4F4 | 
[V:3] A12 | 
[V:4] B,,4A,,8 | 
[V:1] B8E2F2 | 
[V:2] G4z2B2c2d2 | 
[V:3] D4z4z4 | 
[V:4] G,,8z4 | 
[V:1] G2A2G2E2F2D2 | 
[V:2] e2d2B2c2A2B2 | 
[V:3] z12 | 
[V:4] z12 | 
[V:1] E2F2G2E2G3A | 
[V:2] c2d2B2c3def | 
[V:3] z12 | 
[V:4] z12 | 
[V:1] B2c3BA4^G2 | 
[V:2] d2e3dc2B2c2- | 
[V:3] z12 | 
[V:4] z4z4E,4 | 
[V:1] A4z4z4 | 
[V:2] cAd3cc4B2 | 
[V:3] z4e4f4 | 
[V:4] F,4E,4D,4 | 
[V:1] z2G4FEF2G2- | 
[V:2] c3BG4A4- | 
[V:3] e4c4d2e2 | 
[V:4] C,4E,4D,2C,2 | 
[V:1] G2^F2G6=FE | 
[V:2] A4G4z4 | 
[V:3] d4z4B4- | 
[V:4] D,4E,6F,2 | 
[V:1] D4z4z4 | 
[V:2] z2g2f2e4dc | 
[V:3] B4c2B4G2 | 
[V:4] G,4A,2G,4F,E, | 
[V:1] z2G4FEF2G2 | 
[V:2] d4c2g2f2e2- | 
[V:3] A2B2E4z4 | 
[V:4] F,2G,2C,4D,2E,2 | 
[V:1] C2c2BAc4BA | 
[V:2] e2dcd2e2A3B | 
[V:3] e4f2e3cd2 | 
[V:4] A,,4D,2C,2F,4 | 
[V:1] G2c4BAG4- | 
[V:2] cBe4d2e4 | 
[V:3] e4A3Bc2B2- | 
[V:4] E,2E,2F,4E,4 | 
[V:1] G4z4G3A | 
[V:2] d2e2c2g3fe2 | 
[V:3] B2G2A2B2E2e2 | 
[V:4] z2E,2F,2E,4C,2 | 
[V:1] BAc3BA4^G2 | 
[V:2] d2c2A4B2c2- | 
[V:3] f2e2c2d2e4 | 
[V:4] D,2E,2F,4E,4 | 
[V:1] A12- | 
[V:2] cAf4e2d4 | 
[V:3] A12- | 
[V:4] F,3E,D,2C,2D,4 | 
[V:1] A12 ||  
[V:2] c12 ||  
[V:3] A12 ||  
[V:4] A,,12 ||  
[V:1]  [K:C] [K:clef=treble][M:2/1]E6F2 | 
[V:2]  [K:C] [K:clef=treble-8][M:2/1]z8 | 
[V:3]  [K:C] [K:clef=treble-8][M:2/1]z8 | 
[V:4]  [K:C] [K:clef=bass][M:2/1]z8 | 
[V:1] G4A4 | 
[V:2] z4A4- | 
[V:3] z8 | 
[V:4] z8 | 
[V:1] F4EFGA | 
[V:2] A2B2c4 | 
[V:3] z8 | 
[V:4] z8 | 
[V:1] B2A4^G2 | 
[V:2] d4B4 | 
[V:3] z8 | 
[V:4] D,6E,2 | 
[V:1] A4z4 | 
[V:2] ABcde2d2- | 
[V:3] z8 | 
[V:4] F,4G,4 | 
[V:1] G4F4 | 
[V:2] d2^c2d4 | 
[V:3] z8 | 
[V:4] E,4D,E,F,G, | 
[V:1] E3FG2A2 | 
[V:2] z4c4 | 
[V:3] z8 | 
[V:4] A,2G,4^F,2 | 
[V:1] D3EF2E2 | 
[V:2] B4A3B | 
[V:3] z8 | 
[V:4] G,4z4 | 
[V:1] A3Bc2B2- | 
[V:2] c2d2GABc | 
[V:3] z8 | 
[V:4] F,4E,4 | 
[V:1] BAA4G2- | 
[V:2] def4ed | 
[V:3] z8 | 
[V:4] D,3E,F,2G,2 | 
[V:1] G2A2B2c2- | 
[V:2] e4d2e2- | 
[V:3] z8 | 
[V:4] C,4D,2C,2 | 
[V:1] c2BAG4 | 
[V:2] edd4^c2 | 
[V:3] z8 | 
[V:4] F,4E,4 | 
[V:1] F3GABc2 | 
[V:2] d2f4e2 | 
[V:3] z8 | 
[V:4] D,6C,2 | 
[V:1] B2A4^G2 | 
[V:2] d2c2B4 | 
[V:3] z8 | 
[V:4] D,4E,4 | 
[V:1] A2c4B2 | 
[V:2] A3Bc2d2- | 
[V:3] z8 | 
[V:4] F,2A,4G,2 | 
[V:1] A2G2F4 | 
[V:2] dcc4B2 | 
[V:3] z8 | 
[V:4] F,2E,2D,4 | 
[V:1] E4z4 | 
[V:2] c3BG2A2 | 
[V:3] z8 | 
[V:4] A,4_B,2A,2- | 
[V:1] A4_B2A2- | 
[V:2] D4z4 | 
[V:3] z8 | 
[V:4] A,2F,2G,2A,2 | 
[V:1] A2F2G2A2 | 
[V:2] d4e2d2- | 
[V:3] z8 | 
[V:4] D,4z4 | 
[V:1] D4z4 | 
[V:2] d2B2c2d2 | 
[V:3] z8 | 
[V:4] G,4A,2G,2- | 
[V:1] G4A2G2- | 
[V:2] G2c4B2 | 
[V:3] z8 | 
[V:4] G,2E,2F,2G,2 | 
[V:1] G2E2F2G2 | 
[V:2] c4d2e2- | 
[V:3] z8 | 
[V:4] C,4z2G,2 | 
[V:1] C4z4 | 
[V:2] e2dcB2d2 | 
[V:3] z8 | 
[V:4] A,4G,4 | 
[V:1] G4A4 | 
[V:2] e4d4 | 
[V:3] z8 | 
[V:4] E,4F,2D,2 | 
[V:1] G4E4 | 
[V:2] B2c2B2c2- | 
[V:3] z8 | 
[V:4] E,3F,G,2A,2- | 
[V:1] F2D2E3F | 
[V:2] c2A2B2c2 | 
[V:3] z8 | 
[V:4] A,2G,F,E,2A,,2 | 
[V:1] G2A3Bc2- | 
[V:2] d2e2f2e2 | 
[V:3] z8 | 
[V:4] B,,2C,2D,2E,2 | 
[V:1] cBA4^G2 | 
[V:2] ABcAB4 | 
[V:3] z8 | 
[V:4] F,4E,4 | 
[V:1] A4A4 | 
[V:2] A4z2A2 | 
[V:3] z8 | 
[V:4] A,,2D,2D,2D,2 | 
[V:1] z4z2A2 | 
[V:2] A2A2G2A2 | 
[V:3] z8 | 
[V:4] C,2D,2B,,2A,,2- | 
[V:1] A2A2G2A2 | 
[V:2] F2E2z2E2 | 
[V:3] z8 | 
[V:4] A,,B,,C,A,,B,,2A,,2 | 
[V:1] F2E2A3A | 
[V:2] FGABc2d2- | 
[V:3] z8 | 
[V:4] A,3G,F,2D,2 | 
[V:1] G2E2F2F2 | 
[V:2] d2^c2d3=c | 
[V:3] z8 | 
[V:4] E,2E,2D,4 | 
[V:1] E4G2G2 | 
[V:2] c2A2B2B2 | 
[V:3] z8 | 
[V:4] A,4G,2E,2 | 
[V:1] A4G4 | 
[V:2] A4z4 | 
[V:3] z8 | 
[V:4] F,4E,4 | 
[V:1] E8 | 
[V:2] z8 | 
[V:3] z8 | 
[V:4] G,2G,2A,4 | 
[V:1] z2G4G2 | 
[V:2] d2d2e4 | 
[V:3] z8 | 
[V:4] G,4E,4 | 
[V:1] A4G4 | 
[V:2] d4B4 | 
[V:3] z8 | 
[V:4] F,2D,2E,3F, | 
[V:1] E4F2D2 | 
[V:2] z8 | 
[V:3] z8 | 
[V:4] G,2A,2D,4 | 
[V:1] E4G4 | 
[V:2] c2A2B4 | 
[V:3] z8 | 
[V:4] z4E,4 | 
[V:1] A4z4 | 
[V:2] d4e4 | 
[V:3] z8 | 
[V:4] F,4E,4 | 
[V:1] z8 | 
[V:2] e4f4 | 
[V:3] z8 | 
[V:4] C,4D,4 | 
[V:1] B4c4 | 
[V:2] e4c4 | 
[V:3] z8 | 
[V:4] E,4A,,2A,2 | 
[V:1] B4G4 | 
[V:2] d4e4 | 
[V:3] z8 | 
[V:4] G,3F,E,D,C,2 | 
[V:1] A4B4 | 
[V:2] A2d4cB | 
[V:3] z8 | 
[V:4] F,4G,4 | 
[V:1] E2A4GF | 
[V:2] c2e4d2 | 
[V:3] z8 | 
[V:4] A,4F,4 | 
[V:1] [M:3/1]G6F2E4 | 
[V:2] [M:3/1]e8z4 | 
[V:3] [M:3/1]z12 | 
[V:4] [M:3/1]E,12 | 
[V:1] D4G8 | 
[V:2] B8c4 | 
[V:3] z12 | 
[V:4] z4E,8 | 
[V:1] F4D4E4- | 
[V:2] d8B4 | 
[V:3] z12 | 
[V:4] F,4G,8 | 
[V:1] E4A4G4- | 
[V:2] c4d8 | 
[V:3] z12 | 
[V:4] E,4F,4G,4- | 
[V:1] G2F2E2D2C4 | 
[V:2] e8z4 | 
[V:3] z12 | 
[V:4] G,4A,8 | 
[V:1] G4A4B4 | 
[V:2] e4f4e4 | 
[V:3] z12 | 
[V:4] G,4F,4G,4 | 
[V:1] c2A4GFG4 | 
[V:2] c4d4e4 | 
[V:3] z12 | 
[V:4] A,4F,4E,4 | 
[V:1] A4F8 | 
[V:2] c4d2c2B2A2 | 
[V:3] z12 | 
[V:4] F,6E,2D,4 | 
[V:1] E4D8 | 
[V:2] A8^G4 | 
[V:3] z12 | 
[V:4] C,4B,,8 | 
[V:1] [M:2/1]C2c4BA | 
[V:2] [M:2/1]A4z2A2 | 
[V:3] [M:2/1]z8 | 
[V:4] [M:2/1]A,,8 | 
[V:1] G2A2D4 | 
[V:2] c4B4 | 
[V:3] z8 | 
[V:4] z4z2D,2 | 
[V:1] z8 | 
[V:2] A2d2c2B2- | 
[V:3] z8 | 
[V:4] F,4E,4 | 
[V:1] z4z2D2 | 
[V:2] BAA4^G2 | 
[V:3] z8 | 
[V:4] D,2C,2B,,2B,,2 | 
[V:1] F4E4 | 
[V:2] A8 | 
[V:3] z8 | 
[V:4] A,,4z2A,,2 | 
[V:1] D2d2c2B2 | 
[V:2] z2B2c2d2 | 
[V:3] z8 | 
[V:4] B,,2G,,2A,,2D,2 | 
[V:1] B2A4^G2 | 
[V:2] G2A2B2B2 | 
[V:3] z8 | 
[V:4] E,2C,2D,2E,2 | 
[V:1] A4z4 | 
[V:2] A3Bc2d2- | 
[V:3] z8 | 
[V:4] F,2D,2E,2F,2 | 
[V:1] z8 | 
[V:2] dcd2B2c2 | 
[V:3] z8 | 
[V:4] G,3F,G,2E,2 | 
[V:1] z8 | 
[V:2] A2B3AGF | 
[V:3] z8 | 
[V:4] F,2D,2E,3D, | 
[V:1] z4z2d2 | 
[V:2] E2c3BA2- | 
[V:3] z8 | 
[V:4] C,B,,A,,2C,2D,2 | 
[V:1] d2d2c4 | 
[V:2] A2^G2A4 | 
[V:3] z8 | 
[V:4] B,,4A,,2A,2 | 
[V:1] B2A4GF | 
[V:2] z2d2d2d2 | 
[V:3] z8 | 
[V:4] G,2F,4E,D, | 
[V:1] E2A2D3E | 
[V:2] c4B2A2- | 
[V:3] z8 | 
[V:4] A,4z2D,2 | 
[V:1] FGA3Gc2 | 
[V:2] A2GFE2e2 | 
[V:3] z8 | 
[V:4] D,2D,2C,2A,,2 | 
[V:1] B2A4^G2 | 
[V:2] d2c2B4 | 
[V:3] z8 | 
[V:4] B,,2C,2D,2E,2 | 
[V:1] A2B2c2d2 | 
[V:2] A2e4d2 | 
[V:3] z8 | 
[V:4] F,2G,2A,2B,2 | 
[V:1] G2A2B2c2- | 
[V:2] e8 | 
[V:3] z8 | 
[V:4] C4G,2A,2- | 
[V:1] cBA4GF | 
[V:2] c4d4 | 
[V:3] z8 | 
[V:4] A,G,F,E,F,4 | 
[V:1] G8 ||  
[V:2] e8 ||  
[V:3] z8 ||  
[V:4] E,8 ||  
[V:1]  [K:C] [K:clef=treble][M:3/1]z12 | 
[V:2]  [K:C] [K:clef=treble-8][M:3/1]B8c4 | 
[V:3]  [K:C] [K:clef=treble-8][M:3/1]z12 | 
[V:4]  [K:C] [K:clef=bass][M:3/1]z4E,8 | 
[V:1] z4z4E4 | 
[V:2] d2d2d2d2e4 | 
[V:3] z12 | 
[V:4] F,4G,2G,2C,4 | 
[V:1] F4G2G2G2G2 | 
[V:2] d4c4B4 | 
[V:3] z12 | 
[V:4] D,4E,4E,2E,2 | 
[V:1] A4G2F2E4 | 
[V:2] A3Bc2d4^c2 | 
[V:3] z4z2A2_B2A2- | 
[V:4] F,2D,2E,2F,2G,2A,2 | 
[V:1] D4z2A3Bc2- | 
[V:2] d4e4f4 | 
[V:3] A2F2G2A2D2z2 | 
[V:4] D,4z4A,4 | 
[V:1] c2BAB4A4- | 
[V:2] e2c2d2e2A4- | 
[V:3] z12 | 
[V:4] A,4G,4F,4- | 
[V:1] A2F2A2G3EF2- | 
[V:2] A4z2B2G2A2 | 
[V:3] d8e2d2- | 
[V:4] F,2D,2F,2G,4D,2 | 
[V:1] FEE4D2E4- | 
[V:2] B2G2A4B4 | 
[V:3] d2B2c2d2G2B2 | 
[V:4] G,4F,4E,4 | 
[V:1] E4z4z4 | 
[V:2] z2B2c2d4d2 | 
[V:3] c2B2G2A2B4 | 
[V:4] z2E,4F,2G,4 | 
[V:1] z2E4F2G4 | 
[V:2] e3dc2c2B4- | 
[V:3] E4z4z4 | 
[V:4] G,4A,4G,2F,2 | 
[V:1] G4A4G2F2 | 
[V:2] B2c4d2B2A2 | 
[V:3] z12 | 
[V:4] E,4F,2D,2E,2F,2 | 
[V:1] E2D2F2E3FG2 | 
[V:2] B2G2z4z4 | 
[V:3] z2B2c4B2G2 | 
[V:4] G,4A,4E,4 | 
[V:1] CDEFG2A4^G2 | 
[V:2] z2G4E2F2G2 | 
[V:3] A2B2E4B4 | 
[V:4] F,2E,4C,2D,2E,2 | 
[V:1] A4G3AB2G2- | 
[V:2] E2e4dcB4 | 
[V:3] c4B4G4- | 
[V:4] A,,4E,8 | 
[V:1] G2c3Ad3cBA | 
[V:2] e6dcd4 | 
[V:3] G4A8 | 
[V:4] C,4F,8 | 
[V:1] G8z4 | 
[V:2] e2B4c2d2d2 | 
[V:3] B4E4z4 | 
[V:4] E,3F,G,2G,2G,4 | 
[V:1] z12 | 
[V:2] d4c4e4 | 
[V:3] z12 | 
[V:4] F,4A,4G,4- | 
[V:1] z4G3ABGd2- | 
[V:2] d6c2d2B2 | 
[V:3] z4z4d4 | 
[V:4] G,2F,2G,2E,2D,4 | 
[V:1] d2c2d4c2B2- | 
[V:2] A4z4z2d2- | 
[V:3] e4d2B2c2d2 | 
[V:4] z4G,4A,2G,2- | 
[V:1] B2c3BA4G2 | 
[V:2] d2e2c2e2d2B2 | 
[V:3] G4A4_B4 | 
[V:4] G,2E,2F,2C,2D,2E,2 | 
[V:1] A6B2c4 | 
[V:2] c2A3GG4^F2 | 
[V:3] A4F2G2A4 | 
[V:4] A,,2D,4C,B,,A,,4 | 
[V:1] B4A2B3AG2- | 
[V:2] G4A2G2D4 | 
[V:3] D8z4 | 
[V:4] G,,4z2G,,3A,,B,,2 | 
[V:1] G2^F2G4A2c2- | 
[V:2] E2D4G2F2A2- | 
[V:3] A4_B4A4 | 
[V:4] C,2D,2G,,4z4 | 
[V:1] cBA4GFE4 | 
[V:2] AGFED2d4^c2 | 
[V:3] F6G2A4 | 
[V:4] z4z4A,,4 | 
[V:1] D4z4D4 | 
[V:2] d2D2E2F2G3F | 
[V:3] D4z2A2_B4 | 
[V:4] B,,2B,,2A,,4z2G,,2 | 
[V:1] C2E2D4C2c2 | 
[V:2] E2C2D4E4 | 
[V:3] A4F2G2A4 | 
[V:4] A,,2A,,2B,,4A,,4 | 
[V:1] BAGFE2C2D2D2 | 
[V:2] z4z2e3dd2- | 
[V:3] D4z4z4 | 
[V:4] z2G,,2A,,2A,,2B,,2B,,2 | 
[V:1] E2E2D4z2A2- | 
[V:2] d2^c2d2g2f2e2- | 
[V:3] z12 | 
[V:4] A,,4z2G,,2A,,4 | 
[V:1] A2G2A3GFEF2- | 
[V:2] edd4^c2d4 | 
[V:3] d4e4d4 | 
[V:4] B,,4A,,4z2D,2 | 
[V:1] FEE4D2E4 | 
[V:2] z2G2A4B4 | 
[V:3] B2c4d2G2E2 | 
[V:4] E,4F,4E,4 | 
[V:1] z4G4F2A2- | 
[V:2] A4z2G2A2A2 | 
[V:3] F4E2c4d2 | 
[V:4] z2D,2E,2E,2F,2F,2 | 
[V:1] A2G2A3Bc2B2- | 
[V:2] B2B2A4z2G2 | 
[V:3] e6A2z4 | 
[V:4] E,4z2D,2E,4 | 
[V:1] BAA4^G2A3B | 
[V:2] A4B4A4 | 
[V:3] z4e6f2 | 
[V:4] F,4E,4z2D,2 | 
[V:1] cBc4BAG4 | 
[V:2] z2G2A2A2B2B2 | 
[V:3] e4c2d2e4- | 
[V:4] E,2E,2F,2F,2E,4 | 
[V:1] C2F2E2A4^G2 | 
[V:2] A4G2A2B4 | 
[V:3] e2A2z4z2e2- | 
[V:4] z2D,2E,2F,2E,4 | 
[V:1] A12- | 
[V:2] A3Bc2A2c3d | 
[V:3] e2f2e2c3de2 | 
[V:4] A,,12- | 
[V:1] A12 |]  
[V:2] E12 & e12 |]  
[V:3] A12 |]  
[V:4] A,,12 |]  



